!!!COM: Honegger, Arthur
!!!OTL: Symphony No. 2 for String Orchestra and Trumpet (ad lib.)
!!!OMV: I: Molto moderato - Allegro
!!!example: 605
!!!work: Hon-35
**kern	**kern	**kern	**kern	**kern
*part5	*part4	*part3	*part2	*part1
*staff5	*staff4	*staff3	*staff2	*staff1
*I"Contrabass	*I"Violoncello	*I"Viola	*I"Violin II	*I"Violin I
*I'Cb.	*I'Vc.	*I'Vla.	*I'Vln. II	*I'Vln. I
*clefF4	*clefF4	*clefC3	*clefG2	*clefG2
*k[]	*k[]	*k[]	*k[]	*k[]
*C:	*C:	*C:	*C:	*C:
*M4/4	*M4/4	*M4/4	*M4/4	*M4/4
*MM121	*MM121	*MM121	*MM121	*MM121
=94	=94	=94	=94	=94
8BBBn	8BBn	8.anL	8.ffL	4dddn
16r	16r	.	.	.
16FFF	16FF	16aJk	16ffJk	.
12BBBL	12BBL	8a	8.ffL	4aan
12AAA	12AA	.	.	.
.	.	8r	.	.
12GGGJ	12GGJ	.	.	.
.	.	.	16eeJk	.
4BB	4B	8.aL	8.ee-XL	8ff
.	.	.	.	16r
.	.	16aJk	16ee-Jk	16ff
4C	4c	8.dL 8.a	8dd	12bbnL
.	.	.	.	12aa
.	.	.	8r	.
.	.	.	.	12ggJ
.	.	16dJk 16a	.	.
=95	=95	=95	=95	=95
8C#X	8c#X	8d 8a	8a 8ff#X	4aaan^
8r	8r	16r	8r	.
.	.	16d	.	.
4A^	4A^	12aL	8.r	4fff#X
.	.	12g#X	.	.
.	.	12f#XJ	.	.
.	.	.	16cc#X	.
4F#X	4F#X	8dd	12ggL	4ccc#X
.	.	.	12aa	.
.	.	16r	.	.
.	.	.	12bb-XJ	.
.	.	16d	.	.
4C#	4C#X	12aL	8cc#	4aaan^
.	.	12g#	.	.
.	.	.	16r	.
.	.	12f#J	.	.
.	.	.	16ccc#X	.
=96	=96	=96	=96	=96
4A^	4A^	8dd	12ggL	4fff#X
.	.	.	12aa	.
.	.	16r	.	.
.	.	.	12bb-XJ	.
.	.	16d	.	.
4F#X	4F#X	12aL	8cc#X	4dddn
.	.	12g#X	.	.
.	.	.	16r	.
.	.	12f#XJ	.	.
.	.	.	16ccc#X	.
4Dn	4Dn	8dd	12ggL	4aaan^
.	.	.	12aa	.
.	.	16r	.	.
.	.	.	12bb-J	.
.	.	16d	.	.
4A^	4A^	12aL	8cc#	4fff#
.	.	12g#	.	.
.	.	.	16r	.
.	.	12f#J	.	.
.	.	.	16ccc#	.
=97	=97	=97	=97	=97
4F#X	4F#X	8dd	12ggL	4ddd#X
.	.	.	12aa	.
.	.	16r	.	.
.	.	.	12bb-XJ	.
.	.	16d	.	.
4D#X	4D#X	12aL	8cc#X	4aaan^
.	.	12g#X	.	.
.	.	.	16r	.
.	.	12f#XJ	.	.
.	.	.	16ccc#X	.
4A^	4A^	8dd	12ggL	4fff#X
.	.	.	12aa	.
.	.	16r	.	.
.	.	.	12bb-J	.
.	.	16d	.	.
4F#	4F#	12aL	8cc#	4eee
.	.	12g#	.	.
.	.	.	16r	.
.	.	12f#J	.	.
.	.	.	16ccc#	.
=98	=98	=98	=98	=98
4D#X	4D#X	4fn^ 4ccn	4ff#X^ 4ddd	4ggg#X^ 4bbbn
*	*	*clefG2	*	*
4D#	4D#	8r	8r	8r
.	.	(8g-X 8een	(8d-X 8g	(8b 8aan
4D#	4D#	8fnL) 8ff#X	8cnL) 8a-X	8ddL) 8bb
.	.	8f 8ff#	8c 8a-	8dd 8bb
4E	4E	8f 8ff#	8c 8a-	8dd 8bb
.	.	(8g-J 8ee	(8d-XJ 8g	(8bJ 8aa
=99	=99	=99	=99	=99
4D#X	4D#X	8fnL) 8ff#X	8cnL) 8a-X	8ddL) 8bb
.	.	8f 8ff#	8c 8a-	8dd 8bb
4D#	4D#	8f 8ff#	8c 8a-	8dd 8bb
.	.	8fJ 8ff#	8cJ 8a-	8ddJ 8bb
4D#	4D#	(4gn 4ee#X	(4dn 4b-X	(4cc 4aa
4AA	4A	8bnL) 8ff#	8fL) 8dd-X	8ddL) 8gg#X
.	.	(8g-XJ 8ee#	(8d-XJ 8b-	(8ccJ 8aa
=100	=100	=100	=100	=100
4GG#X	4GG#X	4fn) 4ff#X	4c) 4a-X	4dd) 4bb
4GG#	4GG#	8r	8r	8r
.	.	(8g-X 8een	(8d-X 8g	(8cc 8aan
4GG#	4GG#	8fnL) 8ff#	8cL) 8a-X	8ddL) 8bb
.	.	8f 8ff#	8c 8a-X	8dd 8bb
4AA	4AA	8f 8ff#	8c 8a-X	8dd 8bb
.	.	(8g-J 8ee	(8d-XJ 8g	(8ccJ 8aa
=101	=101	=101	=101	=101
4GG#X	4GG#X	8fnL) 8ff#X	8cL) 8a-X	8ddL) 8bb
.	.	8f 8ff#	8c 8a-	8dd 8bb
4GG#	4GG#	8f 8ff#	8c 8a-	8dd 8bb
.	.	8fJ 8ff#	8cJ 8a-	8ddJ 8bb
4GG#	4GG#	(4gn 4ee#X	(4d 4b-X	(4cc#X 4aa
4DD	4D	8bnL) 8ff#	8fL) 8dd-X	8ddnL) 8gg#X
.	.	(8cJ 8f	(8B-XJ 8c#X	(8e#XJ 8a
=102	=102	=102	=102	=102
4CC#X	4CC#X	4B) 4f	4A-X) 4d	4f#X) 4b
4CC#	4CC#	8r	8r	8r
.	.	(8c-X 8f-X	(8G 8B	(8e#X 8a
4CC#	4CC#	8BL) 8e	8A-L) 8d	8f#L) 8b
.	.	8B 8e	8A- 8d	8f# 8b
4CC#	4CC#	8B 8e	8A- 8d	8f# 8b
.	.	[8c-J [8f-	[8BJ [8d	[8e#J [8a
=	=	=	=	=
*-	*-	*-	*-	*-
!!!system-decoration: [(s1,s2,s3,s4,s5)]
!!!CDT: 1892/03/10-1955/11/27
!!!CBL: Le Havre, France
!!!CDL: Paris, France
!!!CNT: Swiss, French
!!!AGN: Orchestral; Symphonic
!!!MCN: Sacher, Paul
!!!MDT: 1942/05/18
!!!MGN: Zurich Collegium Musicum
!!!MLC: Zürich, Switzerland
!!!MPD: 1942
!!!MPN:
!!!ODT: 1941
!!!PDT: 1942
!!!excerpt-start-measure: 94
!!!excerpt-end-measure: 101
!!!excerpt-start-time: 3:11
!!!excerpt-end-time: 3:21
!!!EEV: 2020/01/27
!!!ONB: Converted from MusicXML on 2020/01/27
